assets/images/Logo_VBI.svg

<svg width="150" height="30" viewBox="0 0 150 30" fill="none" xmlns="http://www.w3.org/2000/svg">
<path d="M79.4299 29.8499L68.6099 0.149902H72.9399L81.9399 25.3199H82.9499L91.9599 0.149902H96.2799L85.4699 29.8499H79.4299Z" fill="white"/>
<path fill-rule="evenodd" clip-rule="evenodd" d="M113.64 26.0699C114.92 26.0699 115.99 25.6199 116.86 24.7099C117.73 23.8099 118.17 22.6699 118.17 21.2899C118.17 19.9099 117.73 18.7699 116.86 17.8699C115.99 16.9699 114.92 16.5099 113.64 16.5099H104.08V26.0699H113.64ZM113.13 12.9899C114.03 12.9899 114.83 12.8099 115.52 12.4399C116.21 12.0699 116.73 11.5399 117.11 10.8499C117.49 10.1599 117.66 9.36991 117.66 8.45991C117.66 7.07991 117.25 5.97991 116.43 5.16991C115.61 4.34991 114.51 3.92991 113.14 3.92991H104.08V12.9899H113.14H113.13ZM100.05 29.8499V0.159912H113.13C114.78 0.159912 116.25 0.519914 117.56 1.23991C118.87 1.95991 119.88 2.94991 120.6 4.20991C121.32 5.46991 121.68 6.88991 121.68 8.45991C121.68 9.49991 121.51 10.4399 121.17 11.2799C120.83 12.1199 120.41 12.7999 119.91 13.3499C119.4 13.8899 118.9 14.2699 118.4 14.5099V14.7599C119.37 15.1599 120.24 15.9299 121.02 17.0699C121.79 18.2099 122.17 19.6199 122.17 21.2899C122.17 22.8699 121.79 24.3099 121.04 25.6199C120.28 26.9299 119.25 27.9599 117.94 28.7199C116.63 29.4799 115.19 29.8499 113.61 29.8499H100.03H100.05Z" fill="white"/>
<path d="M132 0.149902H127.97V29.8399H132V0.149902Z" fill="white"/>
<path d="M38.24 20.3999L18 0.149902H58.49L38.24 20.3999Z" fill="#FFB200"/>
<path d="M18 9.6001L38.24 29.8501H18V9.6001Z" fill="#FF0099"/>
<path d="M58.4902 9.6001L38.2402 29.8501H58.4902V9.6001Z" fill="#FF0099"/>
</svg>

<svg xmlns="http://www.w3.org/2000/svg" width="150" height="30" fill="none"><path fill="#fff" d="M79.43 29.85 68.61.15h4.33l9 25.17h1.01L91.96.15h4.32l-10.81 29.7z"/><path fill="#fff" fill-rule="evenodd" d="M113.64 26.07c1.28 0 2.35-.45 3.22-1.36.87-.9 1.31-2.04 1.31-3.42s-.44-2.52-1.31-3.42-1.94-1.36-3.22-1.36h-9.56v9.56zm-.51-13.08c.9 0 1.7-.18 2.39-.55s1.21-.9 1.59-1.59.55-1.48.55-2.39c0-1.38-.41-2.48-1.23-3.29-.82-.82-1.92-1.24-3.29-1.24h-9.06v9.06h9.06zm-13.08 16.86V.16h13.08c1.65 0 3.12.36 4.43 1.08s2.32 1.71 3.04 2.97 1.08 2.68 1.08 4.25q0 1.56-.51 2.82c-.34.84-.76 1.52-1.26 2.07-.51.54-1.01.92-1.51 1.16v.25c.97.4 1.84 1.17 2.62 2.31.77 1.14 1.15 2.55 1.15 4.22 0 1.58-.38 3.02-1.13 4.33a8.4 8.4 0 0 1-3.1 3.1c-1.31.76-2.75 1.13-4.33 1.13h-13.58z" clip-rule="evenodd"/><path fill="#fff" d="M132 .15h-4.03v29.69H132z"/><path fill="#FFB200" d="M38.24 20.4 18 .15h40.49z"/><path fill="#F09" d="m18 9.6 20.24 20.25H18zM58.49 9.6 38.24 29.85h20.25z"/></svg>
